icons-dark/apps/48/ktnef.svg

<?xml version="1.0" encoding="UTF-8" standalone="no"?>
<!-- Created with Inkscape (http://www.inkscape.org/) -->

<svg
   xmlns:dc="http://purl.org/dc/elements/1.1/"
   xmlns:cc="http://creativecommons.org/ns#"
   xmlns:rdf="http://www.w3.org/1999/02/22-rdf-syntax-ns#"
   xmlns:svg="http://www.w3.org/2000/svg"
   xmlns="http://www.w3.org/2000/svg"
   xmlns:xlink="http://www.w3.org/1999/xlink"
   xmlns:sodipodi="http://sodipodi.sourceforge.net/DTD/sodipodi-0.dtd"
   xmlns:inkscape="http://www.inkscape.org/namespaces/inkscape"
   width="48"
   version="1.1"
   height="48"
   id="svg2"
   inkscape:version="0.91 r13725"
   sodipodi:docname="ktnef.svg">
  <sodipodi:namedview
     pagecolor="#ffffff"
     bordercolor="#666666"
     borderopacity="1"
     objecttolerance="10"
     gridtolerance="10"
     guidetolerance="10"
     inkscape:pageopacity="0"
     inkscape:pageshadow="2"
     inkscape:window-width="1920"
     inkscape:window-height="1017"
     id="namedview45"
     showgrid="true"
     inkscape:zoom="4.9166667"
     inkscape:cx="29.76255"
     inkscape:cy="17.896199"
     inkscape:window-x="0"
     inkscape:window-y="0"
     inkscape:window-maximized="1"
     inkscape:current-layer="layer1">
    <inkscape:grid
       type="xygrid"
       id="grid4187" />
  </sodipodi:namedview>
  <defs
     id="defs5455">
    <linearGradient
       inkscape:collect="always"
       id="linearGradient4472">
      <stop
         style="stop-opacity:0.082474"
         id="stop4474" />
      <stop
         offset="1"
         style="stop-opacity:0"
         id="stop4476" />
    </linearGradient>
    <linearGradient
       inkscape:collect="always"
       id="linearGradient4456">
      <stop
         style="stop-opacity:0.27451"
         id="stop4458" />
      <stop
         offset="1"
         style="stop-color:#ffffff;stop-opacity:0"
         id="stop4460" />
    </linearGradient>
    <linearGradient
       inkscape:collect="always"
       id="linearGradient4448">
      <stop
         style="stop-color:#ffffff;stop-opacity:0"
         id="stop4450" />
      <stop
         offset="1"
         style="stop-color:#ffffff;stop-opacity:0.313726"
         id="stop4452" />
    </linearGradient>
    <linearGradient
       inkscape:collect="always"
       xlink:href="#linearGradient4303"
       id="linearGradient4346"
       x1="543.79797"
       x2="503.798"
       gradientUnits="userSpaceOnUse"
       gradientTransform="matrix(0 1 -1.1666667 0 -452.66668 -499.798)" />
    <linearGradient
       inkscape:collect="always"
       id="linearGradient4903">
      <stop
         style="stop-color:#eef1f2"
         id="stop4905" />
      <stop
         offset="1"
         style="stop-color:#f9fafb"
         id="stop4907" />
    </linearGradient>
    <linearGradient
       inkscape:collect="always"
       xlink:href="#linearGradient4448"
       id="linearGradient4454"
       y1="547.79797"
       x1="384.57144"
       y2="530.47748"
       x2="394.57144"
       gradientUnits="userSpaceOnUse" />
    <linearGradient
       inkscape:collect="always"
       xlink:href="#linearGradient4456"
       id="linearGradient4462"
       x1="384.57147"
       x2="414.57144"
       gradientUnits="userSpaceOnUse" />
    <linearGradient
       inkscape:collect="always"
       xlink:href="#linearGradient4472"
       id="linearGradient4478"
       y1="547.79797"
       x1="432.57144"
       y2="527.79797"
       x2="421.02444"
       gradientUnits="userSpaceOnUse" />
    <linearGradient
       inkscape:collect="always"
       xlink:href="#linearGradient4903"
       id="linearGradient4486"
       y1="43.999973"
       y2="20"
       x2="0"
       gradientUnits="userSpaceOnUse" />
    <linearGradient
       inkscape:collect="always"
       id="linearGradient4290">
      <stop
         style="stop-color:#7cbaf8"
         id="stop4292" />
      <stop
         offset="1"
         style="stop-color:#f4fcff"
         id="stop4294" />
    </linearGradient>
    <linearGradient
       inkscape:collect="always"
       id="linearGradient4303">
      <stop
         style="stop-color:#197cf1"
         id="stop4305" />
      <stop
         offset="1"
         style="stop-color:#21c9fb"
         id="stop4307" />
    </linearGradient>
    <linearGradient
       inkscape:collect="always"
       id="linearGradient4227">
      <stop
         style="stop-color:#292c2f"
         id="stop4229" />
      <stop
         offset="1"
         style="stop-opacity:0"
         id="stop4231" />
    </linearGradient>
    <linearGradient
       inkscape:collect="always"
       xlink:href="#linearGradient4227"
       id="linearGradient4755"
       y1="511.798"
       x1="414.57144"
       y2="519.79797"
       x2="422.57144"
       gradientUnits="userSpaceOnUse" />
    <linearGradient
       inkscape:collect="always"
       xlink:href="#linearGradient4290"
       id="linearGradient4185"
       x1="409.57144"
       y1="527.79797"
       x2="409.57144"
       y2="511.798"
       gradientUnits="userSpaceOnUse" />
  </defs>
  <metadata
     id="metadata5458">
    <rdf:RDF>
      <cc:Work
         rdf:about="">
        <dc:format>image/svg+xml</dc:format>
        <dc:type
           rdf:resource="http://purl.org/dc/dcmitype/StillImage" />
        <dc:title></dc:title>
      </cc:Work>
    </rdf:RDF>
  </metadata>
  <g
     inkscape:label="Capa 1"
     inkscape:groupmode="layer"
     id="layer1"
     transform="matrix(1 0 0 1 -384.57143 -499.798)">
    <path
       style="fill:#c8cfd3;fill-rule:evenodd"
       id="path4274"
       d="M 24 8 L 4 20 L 24 35 L 44 20 L 24 8 z "
       transform="matrix(1 0 0 1 384.57143 499.798)" />
    <path
       style="fill:url(#linearGradient4346)"
       id="rect4261"
       d="M 10 4 L 10 44 L 38 44 L 38 12 L 30 4 L 10 4 z "
       transform="matrix(1 0 0 1 384.57143 499.798)" />
    <path
       style="fill:url(#linearGradient4486)"
       id="rect4248"
       d="M 4 20 L 4 44 L 44 44 L 44 20 L 28 32 L 20 32 L 4 20 z "
       transform="matrix(1 0 0 1 384.57143 499.798)" />
    <path
       inkscape:connector-curvature="0"
       style="fill:url(#linearGradient4462);fill-rule:evenodd"
       id="path4334"
       d="m 388.57147,543.798 15.99996,-12 8,0 16.00001,12 z" />
    <path
       inkscape:connector-curvature="0"
       style="fill:url(#linearGradient4478);fill-rule:evenodd"
       id="path4336"
       d="m 428.57144,543.798 -16.00001,-12 16.00001,-12 z" />
    <path
       inkscape:connector-curvature="0"
       style="fill:url(#linearGradient4454);fill-rule:evenodd"
       id="path4338"
       d="m 388.57143,543.798 16.00001,-12 -16.00001,-12 z" />
    <rect
       width="39.999989"
       x="388.57144"
       y="542.79797"
       height="1"
       style="fill:#d1d3d4"
       id="rect4488" />
    <path
       inkscape:connector-curvature="0"
       style="fill:#313437;fill-rule:evenodd"
       id="path4737"
       d="m 422.57143,511.798 -8,0 0,-8 z" />
    <path
       inkscape:connector-curvature="0"
       style="fill:url(#linearGradient4755);opacity:0.2;fill-rule:evenodd"
       id="path4747"
       d="m 414.57143,511.798 8,0 0,8 z" />
    <path
       style="text-decoration:none;text-decoration-line:none;text-decoration-style:solid;text-decoration-color:#000000;clip-rule:nonzero;display:inline;overflow:visible;visibility:visible;opacity:1;isolation:auto;mix-blend-mode:normal;color-interpolation:sRGB;color-interpolation-filters:linearRGB;solid-color:#000000;solid-opacity:1;fill:url(#linearGradient4185);fill-opacity:1;fill-rule:nonzero;stroke:none;stroke-width:1;stroke-linecap:butt;stroke-linejoin:miter;stroke-miterlimit:4;stroke-dasharray:none;stroke-dashoffset:0;stroke-opacity:1;color-rendering:auto;image-rendering:auto;shape-rendering:auto;text-rendering:auto;enable-background:accumulate"
       d="m 416.57184,513.21181 c 1.1752,1.1752 1.17521,3.06743 0,4.24264 l -0.70711,0.70711 -8.46123,8.46123 c -1.56695,1.56695 -4.08991,1.56695 -5.65685,0 -1.56696,-1.56694 -1.56696,-4.0899 0,-5.65686 l 9.16834,-9.16834 0.7071,0.70711 -9.16834,9.16835 c -1.17522,1.17521 -1.17522,3.06743 0,4.24264 1.17521,1.17521 3.06743,1.17521 4.24264,0 l 9.16834,-9.16835 c 0.78348,-0.78348 0.78348,-2.04496 0,-2.82842 -0.78347,-0.78349 -2.04494,-0.78349 -2.82842,0 l -0.70711,0.7071 -8.46123,8.46123 c -0.39175,0.39175 -0.39174,1.0225 0,1.41422 0.39172,0.39174 1.02247,0.39174 1.41421,0 l 0.7071,-0.7071 7.75413,-7.75413 0.70711,0.7071 -8.46123,8.46123 c -0.78348,0.78349 -2.04496,0.78349 -2.82844,10e-6 -0.78347,-0.78347 -0.78347,-2.04495 1e-5,-2.82843 l 8.46123,-8.46123 0.70711,-0.70711 c 1.17521,-1.17521 3.06743,-1.17521 4.24264,0 z"
       id="rect4173"
       inkscape:connector-curvature="0"
       sodipodi:nodetypes="sscsssccsssscscscscccssscss"
       class="ColorScheme-Text" />
  </g>
</svg>

<svg width="48" xmlns="http://www.w3.org/2000/svg" height="48">
 <defs>
  <linearGradient id="a" x1="543.8" x2="503.8" gradientUnits="userSpaceOnUse" gradientTransform="matrix(0 1-1.16667 0-452.67-499.8)">
   <stop stop-color="#197cf1"/>
   <stop offset="1" stop-color="#21c9fb"/>
  </linearGradient>
  <linearGradient id="b" y1="547.8" x1="384.57" y2="530.48" x2="394.57" gradientUnits="userSpaceOnUse">
   <stop stop-color="#ffffff" stop-opacity="0"/>
   <stop offset="1" stop-color="#ffffff" stop-opacity=".314"/>
  </linearGradient>
  <linearGradient id="c" x1="384.57" x2="414.57" gradientUnits="userSpaceOnUse">
   <stop stop-opacity=".275"/>
   <stop offset="1" stop-color="#ffffff" stop-opacity="0"/>
  </linearGradient>
  <linearGradient id="d" y1="547.8" x1="432.57" y2="527.8" x2="421.02" gradientUnits="userSpaceOnUse">
   <stop stop-opacity=".082"/>
   <stop offset="1" stop-opacity="0"/>
  </linearGradient>
  <linearGradient id="e" y1="44" y2="20" x2="0" gradientUnits="userSpaceOnUse">
   <stop stop-color="#eef1f2"/>
   <stop offset="1" stop-color="#f9fafb"/>
  </linearGradient>
  <linearGradient id="f" y1="511.8" x1="414.57" y2="519.8" x2="422.57" gradientUnits="userSpaceOnUse">
   <stop stop-color="#292c2f"/>
   <stop offset="1" stop-opacity="0"/>
  </linearGradient>
  <linearGradient id="g" y1="527.8" y2="511.8" x2="0" gradientUnits="userSpaceOnUse">
   <stop stop-color="#7cbaf8"/>
   <stop offset="1" stop-color="#f4fcff"/>
  </linearGradient>
 </defs>
 <g transform="translate(-384.57-499.8)">
  <g transform="translate(384.57 499.8)">
   <path fill="#c8cfd3" fill-rule="evenodd" d="m24 8l-20 12 20 15 20-15z"/>
   <path fill="url(#a)" d="m10 4v40h28v-32l-8-8z"/>
   <path fill="url(#e)" d="m4 20v24h40v-24l-16 12h-8z"/>
  </g>
  <g fill-rule="evenodd">
   <path fill="url(#c)" d="m388.57 543.8l16-12h8l16 12z"/>
   <path fill="url(#d)" d="m428.57 543.8l-16-12 16-12z"/>
   <path fill="url(#b)" d="m388.57 543.8l16-12-16-12z"/>
  </g>
  <rect width="40" x="388.57" y="542.8" fill="#d1d3d4" height="1"/>
  <g fill-rule="evenodd">
   <path fill="#313437" d="m422.57 511.8h-8v-8z"/>
   <path opacity=".2" fill="url(#f)" d="m414.57 511.8h8v8z"/>
  </g>
  <path color-interpolation-filters="linearRGB" image-rendering="auto" color-rendering="auto" d="m416.57 513.21c1.175 1.175 1.175 3.067 0 4.243l-9.168 9.168c-1.567 1.567-4.09 1.567-5.657 0-1.567-1.567-1.567-4.09 0-5.657l9.168-9.168.707.707-9.168 9.168c-1.175 1.175-1.175 3.067 0 4.243 1.175 1.175 3.067 1.175 4.243 0l9.168-9.168c.783-.783.783-2.045 0-2.828-.783-.783-2.045-.783-2.828 0l-9.168 9.168c-.392.392-.392 1.023 0 1.414.392.392 1.022.392 1.414 0l8.461-8.461.707.707-8.461 8.461c-.783.783-2.045.783-2.828 0-.783-.783-.783-2.045 0-2.828l9.168-9.168c1.175-1.175 3.067-1.175 4.243 0" color-interpolation="sRGB" text-rendering="auto" fill="url(#g)" shape-rendering="auto"/>
 </g>
</svg>
